X:1
T:(unknown title)
M:4/4
L:1/4
K:D
 A| D3/2 E/2 F A| D3/2 E/2 B,D/2-B,/2| A,3/2 B,/2 D D| D3| A| D3/2 E/2 F A|\
 D3/2 E/2 B,D/2-B,/2| A,3/2 B,/2 D D| D3| A| BB/2-A/2 B d| F3/2- E/2 DF/2-A/2|\
 BB/2-d/2 AF/2-D/2| E3| A| D2 E F/2A/2| D3/2 E/2 B,D/2-B,/2| A,3/2 B,/2 D D|\
 D3||

